app/dist/common/images/immunic.svg

<svg height="18" viewBox="0 0 18 18" width="18" xmlns="http://www.w3.org/2000/svg"><path d="m0 0h18v18h-18z" fill="#f0f3fa"/><path d="m12 4 .33 3-4.33-1z" fill="#009acc"/><path d="m11.22 10.5 2.78-1.44-1.67-2.06-1.1 3.5z" fill="#007da9"/><path d="m7 10 4.22.5 1.11-3.5-4.33-1z" fill="#83cde8"/><path d="m10.56 12.59 3.44-3.53-2.78 1.44zm-5.56-6.09v5.5l2-2z" fill="#005c9f"/><path d="m8.44 15 2.23-2.5-2.78-.5z" fill="#83cde8"/><path d="m7 10 .89 2 2.78.5.55-2z" fill="#009acc"/><path d="m4 12h3.89l-.89-2z" fill="#6f9ed4"/><path d="m8 4v2l-1 4-2-3.5z" fill="#007da9"/><path d="m8 4 2 1-2 1z" fill="#005c9f"/></svg>

<!-- by TradingView --><svg width="18" height="18" viewBox="0 0 18 18" xmlns="http://www.w3.org/2000/svg"><path fill="#F0F3FA" d="M0 0h18v18H0z"/><path d="m12 4 .33 3L8 6l4-2Z" fill="#009ACC"/><path d="M11.22 10.5 14 9.06 12.33 7l-1.1 3.5Z" fill="#007DA9"/><path d="m7 10 4.22.5L12.33 7 8 6l-1 4Z" fill="#83CDE8"/><path d="M10.56 12.59 14 9.06l-2.78 1.44-.66 2.09ZM5 6.5V12l2-2-2-3.5Z" fill="#005C9F"/><path d="m8.44 15 2.23-2.5-2.78-.5.55 3Z" fill="#83CDE8"/><path d="m7 10 .89 2 2.78.5.55-2L7 10Z" fill="#009ACC"/><path d="M4 12h3.89L7 10l-3 2Z" fill="#6F9ED4"/><path d="M8 4v2l-1 4-2-3.5L8 4Z" fill="#007DA9"/><path d="m8 4 2 1-2 1V4Z" fill="#005C9F"/></svg>
